X: 43066
T: Wind That Shakes The Barley, The
R: reel
M: 4/4
K: Dmajor
|A2AB ADED|BDGA B2dB|FAAB ABde|f2ed BedB|
A2AB ADED|BDGA B2dB|FAAB ABde|f2ed Bcde|
f3a g3e|f2ed Bcde|fefa g2fg|afed Bcde|
f3a g3e|f2ed BcdA|defg a3b|afed BedB|

